X:1
T:Edinburgh Theatre Royal
Z:Jack Campin: "Embro, Embro", transcription (c) 2001
F:08play/abc/TheatRoy.abc
C:James Porteous
S:NLS MH.97
M:6/8
L:1/8
Q:3/8=80
K:Eb
G/F/|(EB,)G,   B,EG|(TFE)F  (Ee)c|(BG)E   (TFE)F|(EC)B, (CD)E |
     (B,G,)B, (EF)G| (FE)F  (Ee)c|(BG)E ({A}G)FE|(B,C)D  E2  :|
c   |(BG)B    (BG)B|  c2(c ~c)de |(BG)B    (BG)E|(FD)F  (FG)A |
     (BG)B     BGB |  c2(c  c)de |(fg)a    (gf)e|(Bc)d   e2c  |
     (BG)B    (BG)B|  c2c  (cd)e |(BG)E   (TED)E|(FD)B, (B,C)D|
      EB,G,    B,EG|  FEF   Eec  |(BG)E    (GF)E| B,CD   E2  |]

